svg/flanksource-icon.svg

<?xml version="1.0" encoding="UTF-8"?>
<svg xmlns="http://www.w3.org/2000/svg" xmlns:xlink="http://www.w3.org/1999/xlink" width="37.02" height="32" viewBox="0 0 37.02 32">
<path fill-rule="nonzero" fill="rgb(100%, 100%, 100%)" fill-opacity="1" d="M 27.039062 1.222656 L 35.554688 15.972656 L 27.039062 30.71875 L 10.011719 30.71875 L 1.496094 15.972656 L 10.011719 1.222656 Z M 27.734375 0.0234375 L 9.316406 0.0234375 L 0.109375 15.972656 L 9.316406 31.917969 L 27.734375 31.917969 L 36.941406 15.972656 Z M 18.785156 7.984375 L 20.980469 7.984375 L 20.980469 10.523438 L 18.785156 10.523438 Z M 16.3125 7.984375 L 18.378906 7.984375 L 18.378906 10.523438 L 16.3125 10.523438 Z M 8.40625 7.414062 L 15.066406 8.882812 L 15.066406 9.261719 L 6.148438 11.332031 L 3.46875 15.972656 L 10.996094 29.203125 L 11.609375 29.203125 C 12.066406 28.859375 13.078125 27.835938 13.902344 26.65625 C 14.734375 25.472656 15.125 24.832031 15.714844 24.484375 C 15.894531 24.363281 16.097656 24.28125 16.308594 24.242188 L 16.324219 24.238281 L 16.324219 24.242188 C 16.414062 24.226562 16.503906 24.214844 16.59375 24.214844 C 17.277344 24.214844 17.855469 24.652344 18.074219 25.265625 C 17.796875 25.128906 17.238281 24.964844 16.710938 25.457031 C 15.972656 26.144531 16.398438 27.351562 16.398438 27.351562 C 16.425781 27.441406 16.457031 27.515625 16.492188 27.585938 C 16.089844 28.074219 15.058594 28.902344 14.617188 29.203125 L 15.089844 29.203125 C 15.609375 28.816406 17.085938 27.648438 18.058594 26.265625 C 19.015625 24.898438 19.46875 24.15625 20.148438 23.753906 C 20.355469 23.617188 20.589844 23.523438 20.835938 23.476562 L 20.855469 23.472656 L 20.855469 23.476562 C 20.957031 23.457031 21.058594 23.445312 21.164062 23.445312 C 21.953125 23.445312 22.621094 23.953125 22.871094 24.65625 C 22.550781 24.503906 21.90625 24.3125 21.296875 24.878906 C 20.445312 25.675781 20.9375 27.066406 20.9375 27.066406 C 21.011719 27.296875 21.097656 27.484375 21.203125 27.597656 C 20.816406 28.078125 19.792969 28.898438 19.351562 29.203125 L 19.816406 29.203125 C 20.222656 28.894531 21.308594 28.019531 21.976562 27.070312 C 22.671875 26.074219 23.003906 25.535156 23.496094 25.242188 C 23.648438 25.140625 23.816406 25.074219 23.996094 25.042969 C 24 25.039062 24.003906 25.039062 24.011719 25.035156 L 24.011719 25.039062 C 24.085938 25.027344 24.160156 25.019531 24.234375 25.015625 C 24.8125 25.015625 25.296875 25.386719 25.480469 25.898438 C 25.246094 25.789062 24.777344 25.648438 24.335938 26.0625 C 23.714844 26.640625 24.074219 27.652344 24.074219 27.652344 C 24.125 27.820312 24.1875 27.957031 24.265625 28.039062 L 24.261719 28.042969 C 24.339844 28.175781 24.683594 28.882812 25.390625 29.207031 L 26.054688 29.207031 L 33.582031 15.972656 L 30.886719 11.300781 L 22.132812 9.273438 L 22.132812 8.890625 L 28.664062 7.453125 L 26.054688 2.929688 L 10.996094 2.929688 M 15.988281 11.925781 L 15.988281 8.003906 L 15.382812 8.003906 L 18.652344 5.394531 L 21.921875 8.003906 L 21.320312 8.003906 L 21.320312 11.925781 L 23.382812 11.925781 C 23.382812 11.925781 22.296875 13.46875 22.296875 15.253906 L 15.007812 15.253906 C 15.007812 13.46875 13.921875 11.925781 13.921875 11.925781 Z M 19.941406 15.972656 L 14.597656 19.054688 L 14.964844 15.972656 Z M 13.9375 24.671875 L 14.320312 21.40625 L 22.25 16.8125 L 22.585938 19.65625 Z M 20.726562 22.917969 L 20.726562 22.507812 L 22.960938 21.214844 L 23.269531 23.8125 C 22.5 22.597656 20.726562 22.917969 20.726562 22.917969 "/>
</svg>

<svg role="img" viewBox="0 0 37.02 32" xmlns="http://www.w3.org/2000/svg"><path d="m27.04 1.223 8.515 14.75-8.516 14.746H10.012L1.496 15.973l8.516-14.75Zm.694-1.2H9.316L.11 15.973l9.207 15.945h18.418l9.207-15.945Zm-8.949 7.961h2.195v2.54h-2.195Zm-2.472 0h2.066v2.54h-2.067Zm-7.907-.57 6.66 1.469v.379l-8.918 2.07-2.68 4.64 7.528 13.231h.613c.457-.344 1.47-1.367 2.293-2.547.832-1.183 1.223-1.824 1.813-2.172.18-.12.383-.203.594-.242l.015-.004v.004c.09-.015.18-.027.27-.027.683 0 1.261.437 1.48 1.05-.277-.136-.836-.3-1.363.192-.738.688-.313 1.895-.313 1.895.028.09.059.164.094.234-.402.488-1.433 1.316-1.875 1.617h.473c.52-.387 1.996-1.555 2.969-2.937.957-1.368 1.41-2.11 2.09-2.512.206-.137.44-.23.687-.277l.02-.004v.004q.151-.031.308-.032c.79 0 1.457.508 1.707 1.211-.32-.152-.965-.343-1.574.223-.852.797-.36 2.187-.36 2.187.075.23.16.418.266.532-.387.48-1.41 1.3-1.851 1.605h.464c.407-.308 1.493-1.183 2.16-2.133.696-.996 1.028-1.535 1.52-1.828q.229-.152.5-.199.005-.004.016-.008v.004q.111-.018.222-.023c.578 0 1.063.37 1.246.882-.234-.109-.703-.25-1.144.165-.621.578-.262 1.59-.262 1.59.051.167.113.304.192.386l-.004.004c.078.133.422.84 1.129 1.164h.664l7.527-13.234-2.695-4.672-8.754-2.028v-.382l6.531-1.438-2.61-4.523H10.997m4.992 8.996V8.004h-.605l3.27-2.61 3.269 2.61h-.602v3.922h2.063s-1.086 1.543-1.086 3.328h-7.29c0-1.785-1.085-3.328-1.085-3.328Zm3.953 4.047-5.343 3.082.367-3.082Zm-6.003 8.699.382-3.266 7.93-4.593.336 2.843Zm6.789-1.754v-.41l2.234-1.293.309 2.598c-.77-1.215-2.543-.895-2.543-.895" fill="rgb(100%, 100%, 100%)"/></svg>
